**harm	**harte	**silbe	**silbe	**rhyme	**timestamp	**phrase	**leadinstrument	**kern
*M4/4	*M4/4	*	*	*	*	*	*	*
*	*	*	*	*	*	*	*	*
*	*	*	*	*	*	*	*	*
*G:	*G:	*	*	*	*	*	*	*G:
*	*	*	*	*	*	*	*	*
*	*	*	*	*	*	*	*	*
1r;	N	.	.	.	0	.	r	1r;
=1	=1	=1	=1	=1	=1	=1	=1	=1
*>Letter>A	*>Letter>A	*>Letter>A	*>Letter>A	*>Letter>A	*>Letter>A	*>Letter>A	*>Letter>A	*>Letter>A
*>Label>Intro	*>Label>Intro	*>Label>Intro	*>Label>Intro	*>Label>Intro	*>Label>Intro	*>Label>Intro	*>Label>Intro	*>Label>Intro
1I	G:5	.	.	.	0.348	newline	guitar	1G 1b 1dd
=2	=2	=2	=2	=2	=2	=2	=2	=2
1I	G:5	.	.	.	1.849	.	guitar	1G 1b 1dd
=3	=3	=3	=3	=3	=3	=3	=3	=3
1I	G:5	.	.	.	3.349	.	guitar	1G 1b 1dd
=4	=4	=4	=4	=4	=4	=4	=4	=4
1I	G:5	.	.	.	4.849	.	guitar	1G 1b 1dd
=5	=5	=5	=5	=5	=5	=5	=5	=5
1I	G:sus4	.	.	.	6.349	newline	guitar	1G 1b 1dd
=6	=6	=6	=6	=6	=6	=6	=6	=6
1I	G:sus4	.	.	.	7.846	.	guitar	1G 1b 1dd
=7	=7	=7	=7	=7	=7	=7	=7	=7
1I	G:sus4	.	.	.	9.342	.	guitar	1G 1b 1dd
=8	=8	=8	=8	=8	=8	=8	=8	=8
1I	G:sus4	.	.	.	10.839	.	guitar	1G 1b 1dd
=9	=9	=9	=9	=9	=9	=9	=9	=9
1Vf	D:maj/4	.	You're	.	12.335	newline	voice	1D 1f# 1a
.	.	.	so	.	.	.	.	.
.	.	.	_	.	.	.	.	.
.	.	.	square,	.	.	.	.	.
=10	=10	=10	=10	=10	=10	=10	=10	=10
1Vf	D:maj/4	.	_	.	13.782	.	voice	1D 1f# 1a
=11	=11	=11	=11	=11	=11	=11	=11	=11
1I	G:maj	.	ba	.	15.229	.	voice	1G 1b 1dd
.	.	.	.	.	.	.	.	.
.	.	.	by	.	.	.	.	.
.	.	.	_	.	.	.	.	.
=12	=12	=12	=12	=12	=12	=12	=12	=12
1I	G:maj	.	_	.	16.675	.	voice	1G 1b 1dd
.	.	.	.	.	.	.	.	.
.	.	.	.	.	.	.	.	.
=13	=13	=13	=13	=13	=13	=13	=13	=13
1IVc	C:maj/5	.	You're	.	18.122	newline	voice	1c 1e 1G
.	.	.	so	.	.	.	.	.
.	.	.	_	.	.	.	.	.
.	.	.	square	.	.	.	.	.
=14	=14	=14	=14	=14	=14	=14	=14	=14
1IVc	C:maj/5	.	_	.	19.561	.	voice	1c 1e 1G
=15	=15	=15	=15	=15	=15	=15	=15	=15
1IVc	C:maj/5	.	_	.	20.999	.	voice	1c 1e 1G
=16	=16	=16	=16	=16	=16	=16	=16	=16
*	*	*	*	*	*	*	*	*
1IVc	C:maj/5	.	_	.	22.438	.	voice	1c 1e 1G
.	.	_	.	.	.	.	.	.
.	.	Oh,	.	.	.	.	.	.
.	.	_	_	.	.	.	.	.
.	.	_	.	.	.	.	.	.
.	.	you	.	.	.	.	.	.
=17	=17	=17	=17	=17	=17	=17	=17	=17
*>Letter>B	*>Letter>B	*>Letter>B	*>Letter>B	*>Letter>B	*>Letter>B	*>Letter>B	*>Letter>B	*>Letter>B
*>Label>Verse	*>Label>Verse	*>Label>Verse	*>Label>Verse	*>Label>Verse	*>Label>Verse	*>Label>Verse	*>Label>Verse	*>Label>Verse
2I	G:maj	don't	.	.	23.877	newline	voice	2G 2b 2dd
.	.	like	.	.	.	.	.	.
2IV	C:maj	grea-	.	.	24.58	.	voice	2C 2e 2g
.	.	-sy	.	.	.	.	.	.
.	.	di	.	.	.	.	.	.
=18	=18	=18	=18	=18	=18	=18	=18	=18
1I	G:maj	_	.	.	25.283	.	voice	1G 1b 1dd
.	.	ners	.	.	.	.	.	.
.	.	.	.	.	.	.	.	.
.	.	.	.	.	.	.	.	.
.	.	you	.	.	.	.	.	.
=19	=19	=19	=19	=19	=19	=19	=19	=19
2I	G:maj	don't	.	.	26.689	.	voice	2G 2b 2dd
.	.	like	.	.	.	.	.	.
.	.	_	.	.	.	.	.	.
2IV	C:maj	slea-	.	.	27.392	.	voice	2C 2e 2g
.	.	-zy	.	.	.	.	.	.
=20	=20	=20	=20	=20	=20	=20	=20	=20
.	.	_	.	.	.	.	.	.
1I	G:maj	bands	.	A	28.095	.	voice	1G 1b 1dd
.	.	.	.	.	.	.	.	.
.	.	.	.	.	.	.	.	.
.	.	you	.	.	.	.	.	.
=21	=21	=21	=21	=21	=21	=21	=21	=21
2I	G:maj	just	.	.	29.501	newline	voice	2G 2b 2dd
.	.	wan-	.	.	.	.	.	.
.	.	-na	.	.	.	.	.	.
.	.	_	.	.	.	.	.	.
2IV	C:maj	go	.	B	30.201	.	voice	2C 2e 2g
.	.	to	.	.	.	.	.	.
.	.	a	.	.	.	.	.	.
=22	=22	=22	=22	=22	=22	=22	=22	=22
2I	G:maj	mo-	.	.	30.902	.	voice	2G 2b 2dd
.	.	-vie	.	.	.	.	.	.
.	.	show	.	B	.	.	.	.
2IV	C:maj	.	.	.	31.603	.	voice	2C 2e 2g
.	.	.	.	.	.	.	.	.
.	.	and	.	.	.	.	.	.
=23	=23	=23	=23	=23	=23	=23	=23	=23
2I	G:maj	sit	.	.	32.304	.	voice	2G 2b 2dd
.	.	there	.	.	.	.	.	.
2IV	C:maj	.	.	.	33.005	.	voice	2C 2e 2g
.	.	hol-	.	.	.	.	.	.
.	.	-ding	.	.	.	.	.	.
.	.	_	.	.	.	.	.	.
.	.	hands	.	A	.	.	.	.
=24	=24	=24	=24	=24	=24	=24	=24	=24
1I	G:maj	_	.	.	33.705	.	voice	1G 1b 1dd
.	.	.	.	.	.	.	.	.
.	.	_	_	.	.	.	.	.
.	.	you're	you're	.	.	.	.	.
.	.	_	_	.	.	.	.	.
.	.	so	so	.	.	.	.	.
=25	=25	=25	=25	=25	=25	=25	=25	=25
*>Letter>C	*>Letter>C	*>Letter>C	*>Letter>C	*>Letter>C	*>Letter>C	*>Letter>C	*>Letter>C	*>Letter>C
*>Label>Chorus	*>Label>Chorus	*>Label>Chorus	*>Label>Chorus	*>Label>Chorus	*>Label>Chorus	*>Label>Chorus	*>Label>Chorus	*>Label>Chorus
1IVm7	C:7	square	square	C	35.107	newline	voice	1C 1e 1g 1b
.	.	_	_	.	.	.	.	.
=26	=26	=26	=26	=26	=26	=26	=26	=26
4V7	D:7	.	.	.	36.47	.	voice	4D 4f# 4a 4cc
2.r	N	Ba-	.	.	36.811	.	voice	2.r
.	.	-by,	.	.	.	.	.	.
.	.	I	.	.	.	.	.	.
.	.	don't	.	.	.	.	.	.
.	.	care.	.	C	.	.	.	.
=27	=27	=27	=27	=27	=27	=27	=27	=27
*>Letter>D	*>Letter>D	*>Letter>D	*>Letter>D	*>Letter>D	*>Letter>D	*>Letter>D	*>Letter>D	*>Letter>D
*>Label>Interlude	*>Label>Interlude	*>Label>Interlude	*>Label>Interlude	*>Label>Interlude	*>Label>Interlude	*>Label>Interlude	*>Label>Interlude	*>Label>Interlude
1I	G:5	.	.	.	37.834	newline	guitar	1G 1b 1dd
=28	=28	=28	=28	=28	=28	=28	=28	=28
1I	G:5	.	.	.	39.243	.	guitar	1G 1b 1dd
=29	=29	=29	=29	=29	=29	=29	=29	=29
1I	G:5	.	.	.	40.652	.	guitar	1G 1b 1dd
=30	=30	=30	=30	=30	=30	=30	=30	=30
1I	G:5	.	.	.	42.061	.	guitar	1G 1b 1dd
.	.	.	.	.	.	.	.	.
.	.	.	.	.	.	.	.	.
.	.	You	.	.	.	.	.	.
=31	=31	=31	=31	=31	=31	=31	=31	=31
*>Letter>B	*>Letter>B	*>Letter>B	*>Letter>B	*>Letter>B	*>Letter>B	*>Letter>B	*>Letter>B	*>Letter>B
*>Label>Verse	*>Label>Verse	*>Label>Verse	*>Label>Verse	*>Label>Verse	*>Label>Verse	*>Label>Verse	*>Label>Verse	*>Label>Verse
2I	G:maj	don't	.	.	43.47	newline	voice	2G 2b 2dd
.	.	l-	.	.	.	.	.	.
.	.	-like	.	.	.	.	.	.
2IV	C:maj	go-	.	.	44.171	.	voice	2C 2e 2g
.	.	-ing	.	.	.	.	.	.
.	.	to	.	.	.	.	.	.
.	.	par	.	.	.	.	.	.
=32	=32	=32	=32	=32	=32	=32	=32	=32
1I	G:maj	_	.	.	44.873	.	voice	1G 1b 1dd
.	.	ties	.	.	.	.	.	.
.	.	.	.	.	.	.	.	.
.	.	.	.	.	.	.	.	.
.	.	to	.	.	.	.	.	.
=33	=33	=33	=33	=33	=33	=33	=33	=33
2I	G:maj	toot	.	.	46.275	.	voice	2G 2b 2dd
.	.	and	.	.	.	.	.	.
.	.	talk	.	.	.	.	.	.
.	.	_	.	.	.	.	.	.
2IV	C:maj	all	.	.	46.976	.	voice	2C 2e 2g
.	.	night	.	.	.	.	.	.
=34	=34	=34	=34	=34	=34	=34	=34	=34
.	.	_	.	.	.	.	.	.
1I	G:maj	long	.	D	47.678	.	voice	1G 1b 1dd
.	.	.	.	.	.	.	.	.
.	.	.	.	.	.	.	.	.
.	.	You	.	.	.	.	.	.
=35	=35	=35	=35	=35	=35	=35	=35	=35
2I	G:maj	just	.	.	49.08	newline	voice	2G 2b 2dd
.	.	wan-	.	.	.	.	.	.
.	.	-na	.	.	.	.	.	.
.	.	_	.	.	.	.	.	.
2IV	C:maj	park	.	E	49.784	.	voice	2C 2e 2g
.	.	where	.	.	.	.	.	.
.	.	it's	.	.	.	.	.	.
=36	=36	=36	=36	=36	=36	=36	=36	=36
2I	G:maj	.	.	.	50.488	.	voice	2G 2b 2dd
.	.	nice	.	.	.	.	.	.
.	.	and	.	.	.	.	.	.
2IV	C:maj	dark	.	E	51.192	.	voice	2C 2e 2g
.	.	.	.	.	.	.	.	.
.	.	and	.	.	.	.	.	.
=37	=37	=37	=37	=37	=37	=37	=37	=37
2I	G:maj	kiss	.	.	51.896	.	voice	2G 2b 2dd
.	.	me	.	.	.	.	.	.
2IV	C:maj	.	.	.	52.6	.	voice	2C 2e 2g
.	.	_	.	.	.	.	.	.
.	.	sweet	.	.	.	.	.	.
.	.	and	.	.	.	.	.	.
=38	=38	=38	=38	=38	=38	=38	=38	=38
1I	G:maj	strong	.	D	53.304	.	voice	1G 1b 1dd
.	.	.	.	.	.	.	.	.
.	.	_	_	.	.	.	.	.
.	.	you're	you're	.	.	.	.	.
.	.	_	_	.	.	.	.	.
.	.	so	so	.	.	.	.	.
=39	=39	=39	=39	=39	=39	=39	=39	=39
*>Letter>C	*>Letter>C	*>Letter>C	*>Letter>C	*>Letter>C	*>Letter>C	*>Letter>C	*>Letter>C	*>Letter>C
*>Label>Chorus	*>Label>Chorus	*>Label>Chorus	*>Label>Chorus	*>Label>Chorus	*>Label>Chorus	*>Label>Chorus	*>Label>Chorus	*>Label>Chorus
1IVm7	C:7	square	square	C	54.712	newline	voice	1C 1e 1g 1b
.	.	_	_	.	.	.	.	.
=40	=40	=40	=40	=40	=40	=40	=40	=40
4V7	D:7	.	.	.	56.101	.	voice	4D 4f# 4a 4cc
2.r	N	Dar-	.	.	56.449	.	voice	2.r
.	.	-ling,	.	.	.	.	.	.
.	.	_	.	.	.	.	.	.
.	.	I	.	.	.	.	.	.
.	.	_	.	.	.	.	.	.
.	.	don't	.	.	.	.	.	.
.	.	_	.	.	.	.	.	.
.	.	care	.	C	.	.	.	.
=41	=41	=41	=41	=41	=41	=41	=41	=41
1I	G:maj	_	.	.	57.49	.	voice	1G 1b 1dd
.	.	.	.	.	.	.	.	.
.	.	.	.	.	.	.	.	.
.	.	.	.	.	.	.	.	.
=42	=42	=42	=42	=42	=42	=42	=42	=42
1I	G:maj	.	.	.	58.879	.	voice	1G 1b 1dd
.	.	.	.	.	.	.	.	.
.	.	.	.	.	.	.	.	.
.	.	You	.	.	.	.	.	.
=43	=43	=43	=43	=43	=43	=43	=43	=43
*>Letter>E	*>Letter>E	*>Letter>E	*>Letter>E	*>Letter>E	*>Letter>E	*>Letter>E	*>Letter>E	*>Letter>E
*>Label>Bridge	*>Label>Bridge	*>Label>Bridge	*>Label>Bridge	*>Label>Bridge	*>Label>Bridge	*>Label>Bridge	*>Label>Bridge	*>Label>Bridge
.	.	_	.	.	.	.	.	.
1IVm7	C:7	don't	.	.	60.268	newline	voice	1C 1e 1g 1b
.	.	know	.	.	.	.	.	.
.	.	a-	.	.	.	.	.	.
.	.	-ny	.	.	.	.	.	.
.	.	dance	.	.	.	.	.	.
=44	=44	=44	=44	=44	=44	=44	=44	=44
1IVm7	C:7	_	.	.	61.662	.	voice	1C 1e 1g 1b
.	.	steps	.	.	.	.	.	.
.	.	.	.	.	.	.	.	.
.	.	.	.	.	.	.	.	.
.	.	that	.	.	.	.	.	.
.	.	are	.	.	.	.	.	.
.	.	_	.	.	.	.	.	.
.	.	new	.	F	.	.	.	.
=45	=45	=45	=45	=45	=45	=45	=45	=45
1I	G:maj	_	.	.	63.057	.	voice	1G 1b 1dd
.	.	_	.	.	.	.	.	.
.	.	_	.	.	.	.	.	.
.	.	_	.	.	.	.	.	.
.	.	_	.	.	.	.	.	.
=46	=46	=46	=46	=46	=46	=46	=46	=46
1Im7	G:7	_	.	.	64.451	.	voice	1G 1b 1dd 1ff#
.	.	_	.	.	.	.	.	.
.	.	.	.	.	.	.	.	.
.	.	.	.	.	.	.	.	.
.	.	But	.	.	.	.	.	.
=47	=47	=47	=47	=47	=47	=47	=47	=47
.	.	_	.	.	.	.	.	.
1IVm7	C:7	no-	.	.	65.845	newline	voice	1C 1e 1g 1b
.	.	-bo-	.	.	.	.	.	.
.	.	-dy	.	.	.	.	.	.
.	.	else	.	.	.	.	.	.
.	.	can	.	.	.	.	.	.
.	.	_	.	.	.	.	.	.
.	.	love	.	.	.	.	.	.
=48	=48	=48	=48	=48	=48	=48	=48	=48
1#ivo	C#:dim	_	.	.	67.211	.	voice	1C# 1e 1g
.	.	_	.	.	.	.	.	.
.	.	me	.	.	.	.	.	.
.	.	.	.	.	.	.	.	.
.	.	the	.	.	.	.	.	.
.	.	way	.	.	.	.	.	.
=49	=49	=49	=49	=49	=49	=49	=49	=49
.	.	_	.	.	.	.	.	.
4V	D:maj	you	.	.	68.576	.	voice	4D 4f# 4a
.	.	_	.	.	.	.	.	.
2.r	N	do!	.	F	68.918	.	voice	2.r
=50	=50	=50	=50	=50	=50	=50	=50	=50
1r	N	.	.	.	69.942	.	voice	1r
.	.	.	.	.	.	.	.	.
.	.	.	.	.	.	.	.	.
.	.	I	.	.	.	.	.	.
=51	=51	=51	=51	=51	=51	=51	=51	=51
*>Letter>B	*>Letter>B	*>Letter>B	*>Letter>B	*>Letter>B	*>Letter>B	*>Letter>B	*>Letter>B	*>Letter>B
*>Label>Verse	*>Label>Verse	*>Label>Verse	*>Label>Verse	*>Label>Verse	*>Label>Verse	*>Label>Verse	*>Label>Verse	*>Label>Verse
2I	G:maj	don't	.	.	71.307	newline	voice	2G 2b 2dd
.	.	know	.	.	.	.	.	.
.	.	_	.	.	.	.	.	.
2IV	C:maj	why	.	.	71.998	.	voice	2C 2e 2g
.	.	my	.	.	.	.	.	.
.	.	heart	.	.	.	.	.	.
=52	=52	=52	=52	=52	=52	=52	=52	=52
1I	G:maj	_	.	.	72.689	.	voice	1G 1b 1dd
.	.	flips	.	.	.	.	.	.
.	.	.	.	.	.	.	.	.
=53	=53	=53	=53	=53	=53	=53	=53	=53
2I	G:maj	I	.	.	74.07	.	voice	2G 2b 2dd
.	.	on-	.	.	.	.	.	.
.	.	-ly	.	.	.	.	.	.
.	.	_	.	.	.	.	.	.
2IV	C:maj	know	.	.	74.761	.	voice	2C 2e 2g
.	.	it	.	.	.	.	.	.
=54	=54	=54	=54	=54	=54	=54	=54	=54
.	.	_	.	.	.	.	.	.
1I	G:maj	does	.	G	75.452	.	voice	1G 1b 1dd
.	.	.	.	.	.	.	.	.
.	.	.	.	.	.	.	.	.
.	.	I	.	.	.	.	.	.
=55	=55	=55	=55	=55	=55	=55	=55	=55
2I	G:maj	won-	.	.	76.833	newline	voice	2G 2b 2dd
.	.	-der	.	.	.	.	.	.
.	.	_	.	.	.	.	.	.
2IV	C:maj	why	.	.	77.524	.	voice	2C 2e 2g
.	.	.	.	.	.	.	.	.
.	.	I	.	.	.	.	.	.
=56	=56	=56	=56	=56	=56	=56	=56	=56
2I	G:maj	love	.	.	78.216	.	voice	2G 2b 2dd
.	.	you,	.	.	.	.	.	.
.	.	ba	.	.	.	.	.	.
2IV	C:maj	_	.	.	78.908	.	voice	2C 2e 2g
.	.	by	.	.	.	.	.	.
.	.	.	.	.	.	.	.	.
.	.	I	.	.	.	.	.	.
=57	=57	=57	=57	=57	=57	=57	=57	=57
2I	G:maj	guess	.	.	79.599	.	voice	2G 2b 2dd
.	.	it's	.	.	.	.	.	.
2IV	C:maj	just	.	.	80.291	.	voice	2C 2e 2g
.	.	be-	.	.	.	.	.	.
.	.	_	.	.	.	.	.	.
.	.	-cause	.	G	.	.	.	.
=58	=58	=58	=58	=58	=58	=58	=58	=58
1I	G:maj	_	.	.	80.982	.	voice	1G 1b 1dd
.	.	y-	.	.	.	.	.	.
.	.	-you're	You're	.	.	.	.	.
.	.	so	so	.	.	.	.	.
=59	=59	=59	=59	=59	=59	=59	=59	=59
*>Letter>C	*>Letter>C	*>Letter>C	*>Letter>C	*>Letter>C	*>Letter>C	*>Letter>C	*>Letter>C	*>Letter>C
*>Label>Chorus	*>Label>Chorus	*>Label>Chorus	*>Label>Chorus	*>Label>Chorus	*>Label>Chorus	*>Label>Chorus	*>Label>Chorus	*>Label>Chorus
1IVm7	C:7	square	square!	C	82.365	newline	voice	1C 1e 1g 1b
.	.	_	_	.	.	.	.	.
=60	=60	=60	=60	=60	=60	=60	=60	=60
4V7	D:7	.	.	.	83.732	.	voice	4D 4f# 4a 4cc
2.r	N	Ba-	.	.	84.074	.	voice	2.r
.	.	-by,	.	.	.	.	.	.
.	.	I	.	.	.	.	.	.
.	.	don't	.	.	.	.	.	.
.	.	care.	.	C	.	.	.	.
=61	=61	=61	=61	=61	=61	=61	=61	=61
1I	G:5	.	.	.	85.099	.	voice	1G 1b 1dd
=62	=62	=62	=62	=62	=62	=62	=62	=62
1I	G:5	.	.	.	86.467	.	voice	1G 1b 1dd
=63	=63	=63	=63	=63	=63	=63	=63	=63
*>Letter>E	*>Letter>E	*>Letter>E	*>Letter>E	*>Letter>E	*>Letter>E	*>Letter>E	*>Letter>E	*>Letter>E
*>Label>Instrumental	*>Label>Instrumental	*>Label>Instrumental	*>Label>Instrumental	*>Label>Instrumental	*>Label>Instrumental	*>Label>Instrumental	*>Label>Instrumental	*>Label>Instrumental
1IVm7	C:7	.	.	.	87.834	newline	horns	1C 1e 1g 1b
=64	=64	=64	=64	=64	=64	=64	=64	=64
1IVm7	C:7	.	.	.	89.22	.	horns	1C 1e 1g 1b
=65	=65	=65	=65	=65	=65	=65	=65	=65
1I	G:maj	.	.	.	90.607	.	horns	1G 1b 1dd
=66	=66	=66	=66	=66	=66	=66	=66	=66
1Im7	G:7	.	.	.	91.993	.	horns	1G 1b 1dd 1ff#
=67	=67	=67	=67	=67	=67	=67	=67	=67
1IVm7	C:7	.	.	.	93.38	newline	horns	1C 1e 1g 1b
=68	=68	=68	=68	=68	=68	=68	=68	=68
1#ivo	C#:dim	.	.	.	94.791	.	horns	1C# 1e 1g
=69	=69	=69	=69	=69	=69	=69	=69	=69
1V	D:1	.	.	.	96.202	.	horns	1D 1f# 1a
=70	=70	=70	=70	=70	=70	=70	=70	=70
1r	N	.	.	.	97.613	.	horns	1r
.	.	Oh,	.	.	.	.	.	.
.	.	_	.	.	.	.	.	.
.	.	I	.	.	.	.	.	.
=71	=71	=71	=71	=71	=71	=71	=71	=71
*>Letter>B	*>Letter>B	*>Letter>B	*>Letter>B	*>Letter>B	*>Letter>B	*>Letter>B	*>Letter>B	*>Letter>B
*>Label>Verse	*>Label>Verse	*>Label>Verse	*>Label>Verse	*>Label>Verse	*>Label>Verse	*>Label>Verse	*>Label>Verse	*>Label>Verse
2I	G:maj	don't	.	.	99.023	newline	voice	2G 2b 2dd
.	.	know	.	.	.	.	.	.
.	.	_	.	.	.	.	.	.
2IV	C:maj	why	.	.	99.722	.	voice	2C 2e 2g
.	.	my	.	.	.	.	.	.
.	.	heart	.	.	.	.	.	.
=72	=72	=72	=72	=72	=72	=72	=72	=72
1I	G:maj	_	.	.	100.421	.	voice	1G 1b 1dd
.	.	flips	.	.	.	.	.	.
.	.	.	.	.	.	.	.	.
.	.	.	.	.	.	.	.	.
.	.	I	.	.	.	.	.	.
=73	=73	=73	=73	=73	=73	=73	=73	=73
2I	G:maj	on-	.	.	101.818	.	voice	2G 2b 2dd
.	.	-ly	.	.	.	.	.	.
.	.	_	.	.	.	.	.	.
2IV	C:maj	know	.	.	102.517	.	voice	2C 2e 2g
.	.	it	.	.	.	.	.	.
.	.	_	.	.	.	.	.	.
.	.	does	.	G	.	.	.	.
=74	=74	=74	=74	=74	=74	=74	=74	=74
1I	G:maj	_	.	.	103.215	.	voice	1G 1b 1dd
.	.	.	.	.	.	.	.	.
.	.	.	.	.	.	.	.	.
.	.	I	.	.	.	.	.	.
=75	=75	=75	=75	=75	=75	=75	=75	=75
2I	G:maj	won-	.	.	104.613	newline	voice	2G 2b 2dd
.	.	-der	.	.	.	.	.	.
.	.	_	.	.	.	.	.	.
2IV	C:maj	why	.	.	105.306	.	voice	2C 2e 2g
.	.	.	.	.	.	.	.	.
.	.	I	.	.	.	.	.	.
=76	=76	=76	=76	=76	=76	=76	=76	=76
2I	G:maj	love	.	.	105.999	.	voice	2G 2b 2dd
.	.	you	.	.	.	.	.	.
.	.	ba	.	.	.	.	.	.
2IV	C:maj	_	.	.	106.693	.	voice	2C 2e 2g
.	.	by	.	.	.	.	.	.
.	.	.	.	.	.	.	.	.
.	.	I	.	.	.	.	.	.
=77	=77	=77	=77	=77	=77	=77	=77	=77
2I	G:maj	guess	.	.	107.386	.	voice	2G 2b 2dd
.	.	it's	.	.	.	.	.	.
2IV	C:maj	.	.	.	108.08	.	voice	2C 2e 2g
.	.	just	.	.	.	.	.	.
.	.	be-	.	.	.	.	.	.
=78	=78	=78	=78	=78	=78	=78	=78	=78
.	.	_	.	.	.	.	.	.
1I	G:maj	-cause,	.	G	108.773	.	voice	1G 1b 1dd
.	.	you're	.	.	.	.	.	.
.	.	_	You're	.	.	.	.	.
.	.	so	so	.	.	.	.	.
=79	=79	=79	=79	=79	=79	=79	=79	=79
*>Letter>C	*>Letter>C	*>Letter>C	*>Letter>C	*>Letter>C	*>Letter>C	*>Letter>C	*>Letter>C	*>Letter>C
*>Label>Chorus	*>Label>Chorus	*>Label>Chorus	*>Label>Chorus	*>Label>Chorus	*>Label>Chorus	*>Label>Chorus	*>Label>Chorus	*>Label>Chorus
1IVm7	C:7	square	square!	C	110.16	newline	voice	1C 1e 1g 1b
.	.	_	_	.	.	.	.	.
=80	=80	=80	=80	=80	=80	=80	=80	=80
4V7	D:7	.	.	.	111.535	.	voice	2D 2f# 2a 2cc
2.r	N	.	.	.	111.878	.	voice	2r
.	.	I	.	.	.	.	.	.
.	.	don't	.	.	.	.	.	.
.	.	care.	.	C	.	.	.	.
=81	=81	=81	=81	=81	=81	=81	=81	=81
*>Letter>A	*>Letter>A	*>Letter>A	*>Letter>A	*>Letter>A	*>Letter>A	*>Letter>A	*>Letter>A	*>Letter>A
*>Label>Outro	*>Label>Outro	*>Label>Outro	*>Label>Outro	*>Label>Outro	*>Label>Outro	*>Label>Outro	*>Label>Outro	*>Label>Outro
1Vf	D:maj/4	You're	.	.	112.909	newline	voice	1D 1f# 1a
.	.	so	.	.	.	.	.	.
.	.	_	.	.	.	.	.	.
.	.	square!	.	.	.	.	.	.
=82	=82	=82	=82	=82	=82	=82	=82	=82
1Vf	D:maj/4	_	.	.	114.329	.	voice	1D 1f# 1a
=83	=83	=83	=83	=83	=83	=83	=83	=83
1Vf	D:maj/4	_	.	.	115.748	.	voice	1D 1f# 1a
=84	=84	=84	=84	=84	=84	=84	=84	=84
1Vf	D:maj/4	.	.	.	117.167	.	voice	1D 1f# 1a
=85	=85	=85	=85	=85	=85	=85	=85	=85
1IVc	C:maj/5	You're	.	.	118.586	newline	voice	1c 1e 1G
.	.	so	.	.	.	.	.	.
.	.	square	.	.	.	.	.	.
=86	=86	=86	=86	=86	=86	=86	=86	=86
1IVc	C:maj/5	_	.	.	119.973	.	voice	1c 1e 1G
=87	=87	=87	=87	=87	=87	=87	=87	=87
1IVc	C:maj/5	_	.	.	121.359	.	voice	1c 1e 1G
.	.	.	.	.	.	.	.	.
=88	=88	=88	=88	=88	=88	=88	=88	=88
1IVc	C:maj/5	.	.	.	122.745	.	voice	1c 1e 1G
=89	=89	=89	=89	=89	=89	=89	=89	=89
1Vf	D:maj/4	You're	.	.	124.131	newline	voice	1D 1f# 1a
.	.	so	.	.	.	.	.	.
.	.	_	.	.	.	.	.	.
.	.	square!	.	.	.	.	.	.
=90	=90	=90	=90	=90	=90	=90	=90	=90
1Vf	D:maj/4	_	.	.	125.553	.	voice	1D 1f# 1a
=91	=91	=91	=91	=91	=91	=91	=91	=91
1Vf	D:maj/4	_	.	.	126.974	.	voice	1D 1f# 1a
.	.	.	.	.	.	.	.	.
=92	=92	=92	=92	=92	=92	=92	=92	=92
1Vf	D:maj/4	.	.	.	128.395	.	voice	1D 1f# 1a
=93	=93	=93	=93	=93	=93	=93	=93	=93
1IVc	C:maj/5	You're	.	.	129.817	newline	voice	1c 1e 1G
.	.	so	.	.	.	.	.	.
.	.	square	.	.	.	.	.	.
=94	=94	=94	=94	=94	=94	=94	=94	=94
1IVc	C:maj/5	_	.	.	131.21	.	voice	1c 1e 1G
=95	=95	=95	=95	=95	=95	=95	=95	=95
1IVc	C:maj/5	_	.	.	132.604	.	voice	1c 1e 1G
.	.	.	.	.	.	.	.	.
.	.	.	.	.	.	.	.	.
=96	=96	=96	=96	=96	=96	=96	=96	=96
1IVc	C:maj/5	.	.	.	133.998	.	voice	1c 1e 1G
=97	=97	=97	=97	=97	=97	=97	=97	=97
1Vf	D:maj/4	You're	.	.	135.391	newline	fadeout	1D 1f# 1a
.	.	so	.	.	.	.	.	.
.	.	_	.	.	.	.	.	.
.	.	square!	.	.	.	.	.	.
=98	=98	=98	=98	=98	=98	=98	=98	=98
1Vf	D:maj/4	_	.	.	136.788	.	fadeout	1D 1f# 1a
=99	=99	=99	=99	=99	=99	=99	=99	=99
1Vf	D:maj/4	_	.	.	138.185	.	fadeout	1D 1f# 1a
.	.	.	.	.	.	.	.	.
=100	=100	=100	=100	=100	=100	=100	=100	=100
1Vf	D:maj/4	.	.	.	139.582	.	fadeout	1D 1f# 1a
=101	=101	=101	=101	=101	=101	=101	=101	=101
1IVc	C:maj/5	You're	.	.	140.979	newline	fadeout	1c 1e 1G
.	.	so	.	.	.	.	.	.
.	.	square	.	.	.	.	.	.
=102	=102	=102	=102	=102	=102	=102	=102	=102
1IVc	C:maj/5	_	.	.	142.355	.	fadeout	1c 1e 1G
=103	=103	=103	=103	=103	=103	=103	=103	=103
1IVc	C:maj/5	_	.	.	143.731	.	fadeout	1c 1e 1G
.	.	.	.	.	.	.	.	.
.	.	.	.	.	.	.	.	.
=104	=104	=104	=104	=104	=104	=104	=104	=104
1IVc	C:maj/5	.	.	.	145.107	.	fadeout	1c 1e 1G
=105	=105	=105	=105	=105	=105	=105	=105	=105
1Vf	D:maj/4	.	.	.	146.484	newline	fadeout	1D 1f# 1a
=106	=106	=106	=106	=106	=106	=106	=106	=106
1Vf	D:maj/4	.	.	.	147.907	.	fadeout	1D 1f# 1a
=107	=107	=107	=107	=107	=107	=107	=107	=107
1Vf	D:maj/4	.	.	.	149.331	.	fadeout	1D 1f# 1a
=108	=108	=108	=108	=108	=108	=108	=108	=108
1Vf	D:maj/4	.	.	.	150.755	.	fadeout	1D 1f# 1a
=109	=109	=109	=109	=109	=109	=109	=109	=109
1IVc	C:maj/5	.	.	.	152.179	newline	voice	1c 1e 1G
=110	=110	=110	=110	=110	=110	=110	=110	=110
1IVc	C:maj/5	.	.	.	153.498	.	voice	1c 1e 1G
=111	=111	=111	=111	=111	=111	=111	=111	=111
1IVc	C:maj/5	.	.	.	154.817	.	voice	1c 1e 1G
=112	=112	=112	=112	=112	=112	=112	=112	=112
1IVc	C:maj/5	.	.	.	156.136	.	voice	1c 1e 1G
1r;	N	.	.	.	157.455	.	r	1r;
1r;	N	.	.	.	158.041	.	r	1r;
*-	*-	*-	*-	*-	*-	*-	*-	*-
!!!BillboardChartDate: 1982/12/11
!!!BillboardPeak: 47
!!!BillboardWeeksOnChart: 9
!!!COC: Joni Mitchell
!!!ENC: Nathaniel Condit-Schultz
!!!EST: Awating manual error checking and editing.
!!!OTL: (You're So Square) Baby I Don't Care
!!!RDF**harte: Chris Harte's syntax, used by MIREX
!!!RDF**harmony: **recip + pitch class of root + harmonic quality
!!!RDF**leadinstrument: original McGill primary instrumentation annotation
!!!RDF**phrase: newline = linebreak in original McGill transcription
!!!RDF**timestamp: McGill audio timestamp in seconds
!!!RDT: 2017/01/12/
!!!SampleActualRank: 47
!!!SampleID#: 0417
!!!SampleTargetRank: 47
!!!MBID: daebea92-8798-4d18-bc05-2437d25b00cb
